.local/share/icons/Gruvbox-Plus-Dark/emblems/48/vcs-added.svg

<svg width="48" height="48" version="1.1" xmlns="http://www.w3.org/2000/svg">
  <circle cx="24" cy="24" r="20" fill="#83a598"/>
  <path d="m38 21h-11v-11h-6v11h-11v6h11v11h6v-11h11v-6z" fill="#ebdbb2"/>
</svg>

<svg xmlns="http://www.w3.org/2000/svg" width="48" height="48" version="1.1" viewBox="0 0 48 48">
 <circle style="fill:#fe8019" cx="24" cy="24" r="20"/>
 <path style="fill:#ebdbb2" d="M 21,10 V 21 H 10 V 27 H 21 V 38 H 27 V 27 H 38 V 21 H 27 V 10 Z"/>
</svg>
